!!!COM:	Pierre de la Rue
**kern	**kern
*part2	*part1
*staff2	*staff1
*clefGv2	*clefG2
*k[]	*k[]
*M2/1	*M2/1
=1-	=1-
2.G	0r
4A	.
2B	.
[2c	.
=2	=2
2c]	2.e
4B	.
4A	4f
2B	2g
[2c	[2a
=3	=3
2c]	2a]
4B	4g
4A	4f
2B	2g
2c	[2a
=4	=4
1F	2a]
.	4g
.	4f
2r	2g
[2F	2a
=5	=5
2F]	1d
2G	.
2A	2r
[2B	[2d
=6	=6
2B]	2d]
4A	2e
4G	.
2A	2f
[2B	[2g
=7	=7
2B]	2g]
4A	4f
4G	4e
2A	2f
2B	[2g
=8	=8
1E	2g]
.	4f
.	4e
2r	2f
2E	2g
=9	=9
2.E	1c
4F	.
2G	2r
[2A	2c
=10	=10
2A]	2.c
4G	.
4F	4d
2G	2e
2A	[2f
=11	=11
1D	2f]
.	4e
.	4d
2r	2e
[2d	2f
=12	=12
2d]	2d
4c	1a
4B	.
2c	.
2d	4g
.	4f
=13	=13
2B	2g
1A	2a
.	2f
2G	[2e
=14	=14
2A	4e]
.	4d
2F	2d
2.E	2e
.	[2g
4F	.
=15	=15
4G	4g]
4A	4f
4B	4d
4c	4e
2d	2f
[2c	[2e
=16	=16
4c]	2e]
4B	.
1A	4d
.	4c
.	1B
2G	.
=17	=17
[0A	0A
=18	=18
0A]	1r
.	1e
=19	=19
1r	1f
1B	1g
=20	=20
1c	1.a
1d	.
.	4g
.	4f
=21	=21
1.e	4g
.	4f
.	4e
.	4d
.	2c
4d	2cc
4c	.
=22	=22
4d	2b
4c	.
4B	2.a
4A	.
1B	.
.	4g
.	2g
=23	=23
1A	2a
.	2e
2r	2f
2B	[2g
=24	=24
2c	4g]
.	4e
2.d	2f
.	2d
4B	.
2c	2e
=25	=25
2A	2r
2E	2e
2r	2f
2B	[2g
=26	=26
2c	4g]
.	4e
2.d	2f
.	2d
4B	.
2c	[2e
=27	=27
2A	2e]
2.c	2.A
4B	4B
[2A	4c
.	4d
=28	=28
2A]	4e
.	4f
4G	1g
4F	.
4E	.
4F	.
4G	[2d
4A	.
=29	=29
4B	4d]
4c	4e
1d	4f
.	4g
.	4a
.	4b
4c	[2cc
4B	.
=30	=30
1A	2cc]
.	4b
.	4a
2r	2g
2A	[2a
=31	=31
2B	2a]
1c	2g
.	2.a
2A	.
.	4f
=32	=32
2B	2g
2.c	2.a
4B	4g
4A	4f
4G	4e
=33	=33
4A	2f
4G	.
4F	2.e
4E	.
1F	.
.	4d
.	2d
=34	=34
0E	0e
==	==
*-	*-
